X:167
T:score247
L:1/8
Q:1/4=96
M:3/4
I:linebreak $
K:G
 (G>F | F4) (F>G | G4)!<(! (G>B |!<)! d2- de dc |!>(! B2 G)!>)! z (G>F |$ F4) (F>G | G4) (G>B | %7
!<(!!<)! d3!>(!!>)! ^c =cA | G2) z2 z2 |] %9
